svg/aws-ec2-r5b.svg

<?xml version="1.0" encoding="UTF-8"?>
<svg xmlns="http://www.w3.org/2000/svg" xmlns:xlink="http://www.w3.org/1999/xlink" width="32" height="32" viewBox="0 0 32 32">
<path fill-rule="evenodd" fill="rgb(83.137255%, 35.686275%, 2.745098%)" fill-opacity="1" d="M 6 26 L 26 26 L 26 6 L 6 6 Z M 30.667969 8.667969 L 30.667969 7.332031 L 27.332031 7.332031 L 27.332031 5.332031 C 27.332031 4.964844 27.035156 4.667969 26.667969 4.667969 L 24.667969 4.667969 L 24.667969 1.332031 L 23.332031 1.332031 L 23.332031 4.667969 L 20.667969 4.667969 L 20.667969 1.332031 L 19.332031 1.332031 L 19.332031 4.667969 L 16.667969 4.667969 L 16.667969 1.332031 L 15.332031 1.332031 L 15.332031 4.667969 L 12.667969 4.667969 L 12.667969 1.332031 L 11.332031 1.332031 L 11.332031 4.667969 L 8.667969 4.667969 L 8.667969 1.332031 L 7.332031 1.332031 L 7.332031 4.667969 L 5.332031 4.667969 C 4.964844 4.667969 4.667969 4.964844 4.667969 5.332031 L 4.667969 7.332031 L 1.332031 7.332031 L 1.332031 8.667969 L 4.667969 8.667969 L 4.667969 11.332031 L 1.332031 11.332031 L 1.332031 12.667969 L 4.667969 12.667969 L 4.667969 15.332031 L 1.332031 15.332031 L 1.332031 16.667969 L 4.667969 16.667969 L 4.667969 19.332031 L 1.332031 19.332031 L 1.332031 20.667969 L 4.667969 20.667969 L 4.667969 23.332031 L 1.332031 23.332031 L 1.332031 24.667969 L 4.667969 24.667969 L 4.667969 26.667969 C 4.667969 27.035156 4.964844 27.332031 5.332031 27.332031 L 7.332031 27.332031 L 7.332031 30.667969 L 8.667969 30.667969 L 8.667969 27.332031 L 11.332031 27.332031 L 11.332031 30.667969 L 12.667969 30.667969 L 12.667969 27.332031 L 15.332031 27.332031 L 15.332031 30.667969 L 16.667969 30.667969 L 16.667969 27.332031 L 19.332031 27.332031 L 19.332031 30.667969 L 20.667969 30.667969 L 20.667969 27.332031 L 23.332031 27.332031 L 23.332031 30.667969 L 24.667969 30.667969 L 24.667969 27.332031 L 26.667969 27.332031 C 27.035156 27.332031 27.332031 27.035156 27.332031 26.667969 L 27.332031 24.667969 L 30.667969 24.667969 L 30.667969 23.332031 L 27.332031 23.332031 L 27.332031 20.667969 L 30.667969 20.667969 L 30.667969 19.332031 L 27.332031 19.332031 L 27.332031 16.667969 L 30.667969 16.667969 L 30.667969 15.332031 L 27.332031 15.332031 L 27.332031 12.667969 L 30.667969 12.667969 L 30.667969 11.332031 L 27.332031 11.332031 L 27.332031 8.667969 Z M 20.371094 14.816406 C 20.699219 14.585938 21.089844 14.464844 21.492188 14.464844 C 21.890625 14.464844 22.183594 14.597656 22.375 14.859375 C 22.5625 15.125 22.65625 15.53125 22.65625 16.078125 C 22.65625 16.632812 22.5625 17.042969 22.367188 17.316406 C 22.175781 17.585938 21.878906 17.71875 21.484375 17.71875 C 21.089844 17.71875 20.71875 17.597656 20.371094 17.355469 Z M 20.296875 18 C 20.484375 18.1875 20.703125 18.332031 20.960938 18.433594 C 21.214844 18.539062 21.484375 18.589844 21.761719 18.589844 C 22.171875 18.589844 22.53125 18.480469 22.835938 18.261719 C 23.140625 18.042969 23.375 17.742188 23.535156 17.363281 C 23.699219 16.980469 23.777344 16.539062 23.777344 16.039062 C 23.777344 15.292969 23.601562 14.699219 23.25 14.257812 C 22.898438 13.816406 22.429688 13.59375 21.835938 13.59375 C 21.300781 13.59375 20.8125 13.78125 20.371094 14.15625 L 20.371094 11.578125 L 19.269531 11.578125 L 19.269531 18.484375 L 20.183594 18.484375 Z M 15.703125 18.625 C 15.085938 18.625 14.480469 18.5 13.914062 18.253906 L 13.914062 17.375 C 14.59375 17.605469 15.179688 17.71875 15.675781 17.71875 C 16.597656 17.71875 17.058594 17.324219 17.058594 16.527344 C 17.058594 16.140625 16.941406 15.859375 16.710938 15.679688 C 16.480469 15.503906 16.109375 15.414062 15.601562 15.414062 C 15.226562 15.414062 14.753906 15.445312 14.183594 15.507812 L 14.183594 14.800781 L 14.359375 12.019531 L 17.871094 12.019531 L 17.871094 12.90625 L 15.402344 12.90625 L 15.292969 14.632812 C 15.546875 14.582031 15.820312 14.558594 16.105469 14.558594 C 16.75 14.558594 17.261719 14.730469 17.628906 15.078125 C 18.003906 15.429688 18.1875 15.902344 18.1875 16.507812 C 18.1875 17.152344 17.964844 17.664062 17.515625 18.050781 C 17.066406 18.433594 16.464844 18.625 15.703125 18.625 M 9.601562 12.894531 L 10.761719 12.894531 C 11.46875 12.894531 11.820312 13.253906 11.820312 13.96875 C 11.820312 14.683594 11.457031 15.042969 10.734375 15.042969 L 9.601562 15.042969 Z M 9.601562 15.917969 L 10.738281 15.917969 L 12.25 18.484375 L 13.390625 18.484375 L 11.71875 15.722656 C 12.128906 15.5625 12.441406 15.328125 12.65625 15.023438 C 12.871094 14.71875 12.980469 14.355469 12.980469 13.929688 C 12.980469 13.347656 12.789062 12.882812 12.40625 12.535156 C 12.023438 12.191406 11.515625 12.019531 10.878906 12.019531 L 8.460938 12.019531 L 8.460938 18.484375 L 9.601562 18.484375 Z M 9.601562 15.917969 "/>
</svg>

<svg role="img" viewBox="0 0 32 32" xmlns="http://www.w3.org/2000/svg"><path d="M6 26h20V6H6ZM30.668 8.668V7.332h-3.336v-2a.664.664 0 0 0-.664-.664h-2V1.332h-1.336v3.336h-2.664V1.332h-1.336v3.336h-2.664V1.332h-1.336v3.336h-2.664V1.332h-1.336v3.336H8.668V1.332H7.332v3.336h-2a.664.664 0 0 0-.664.664v2H1.332v1.336h3.336v2.664H1.332v1.336h3.336v2.664H1.332v1.336h3.336v2.664H1.332v1.336h3.336v2.664H1.332v1.336h3.336v2c0 .367.297.664.664.664h2v3.336h1.336v-3.336h2.664v3.336h1.336v-3.336h2.664v3.336h1.336v-3.336h2.664v3.336h1.336v-3.336h2.664v3.336h1.336v-3.336h2a.664.664 0 0 0 .664-.664v-2h3.336v-1.336h-3.336v-2.664h3.336v-1.336h-3.336v-2.664h3.336v-1.336h-3.336v-2.664h3.336v-1.336h-3.336V8.668Zm-10.297 6.148a1.94 1.94 0 0 1 1.121-.351q.598.001.883.394.281.399.281 1.22c0 .554-.093.964-.289 1.237-.191.27-.488.403-.883.403q-.591 0-1.113-.364ZM20.297 18q.279.281.664.434.383.157.8.156.616 0 1.075-.328.458-.33.7-.899.243-.574.241-1.324 0-1.12-.527-1.781c-.352-.442-.82-.664-1.414-.664q-.802 0-1.465.562v-2.578H19.27v6.906h.914Zm-4.594.625a4.5 4.5 0 0 1-1.789-.371v-.879q1.019.345 1.762.344 1.383.002 1.383-1.192-.002-.579-.348-.847-.346-.265-1.11-.266-.562 0-1.417.094V14.8l.175-2.781h3.512v.886h-2.469l-.109 1.727q.383-.075.812-.074c.645 0 1.157.171 1.524.52.375.35.558.823.558 1.429q.001.97-.671 1.543c-.45.383-1.051.574-1.813.574m-6.101-5.73h1.16q1.06 0 1.058 1.074.001 1.073-1.086 1.074H9.602Zm0 3.023h1.136l1.512 2.566h1.14l-1.671-2.761q.615-.241.937-.7.323-.456.324-1.093.001-.873-.574-1.395-.573-.515-1.527-.515H8.46v6.464H9.6Zm0 0" fill="rgb(83.137256%, 35.686275%, 2.745098%)" fill-rule="evenodd"/></svg>
